lib/logo_tmp/nrk-logo-nrk-yr-radio-on-dark.svg

<svg width="63" height="22" viewBox="0 0 63 22" fill="none" xmlns="http://www.w3.org/2000/svg">
<path d="M0 18.0033V4.00453H4.59339V18.0033H0ZM10.8428 6.2325L13.4844 18.0033H8.45737L5.30307 4.00453H8.12254C8.76907 3.99614 9.39641 4.22405 9.88691 4.64538C10.3782 5.04903 10.7158 5.6094 10.8428 6.2325ZM14.1744 18.0033V4.00453H18.7678V18.0033H14.1744ZM22.2372 9.32804C21.7422 9.33286 21.2552 9.20336 20.828 8.95338C20.4064 8.70973 20.0563 8.35954 19.8127 7.93795C19.5624 7.51064 19.4329 7.02348 19.4378 6.52829C19.4321 6.03613 19.5618 5.55186 19.8127 5.12842C20.0589 4.71141 20.4086 4.36503 20.828 4.12286C21.2553 3.87317 21.7423 3.74369 22.2372 3.7482C22.7292 3.7429 23.2133 3.87251 23.6369 4.12286C24.0521 4.36715 24.3981 4.71324 24.6424 5.12842C24.893 5.55198 25.0226 6.03616 25.0172 6.52829C25.0218 7.02344 24.8923 7.51052 24.6424 7.93795C24.4007 8.35769 24.0542 8.70758 23.6369 8.95338C23.2133 9.20423 22.7289 9.33386 22.2366 9.32804H22.2372ZM25.7269 18.0033V4.00453H30.3207V18.0033H25.7269ZM36.136 11.6545C36.1489 11.6681 36.2475 11.8291 36.4317 12.1376C36.6159 12.446 36.8558 12.8404 37.1513 13.3206C37.447 13.8006 37.759 14.3099 38.0874 14.8486C38.4157 15.3873 38.7247 15.8967 39.0143 16.3767C39.3028 16.8566 39.6313 17.3988 40 18.0033H34.9531C34.6375 17.4906 34.3515 17.0273 34.0952 16.6132C33.8389 16.1992 33.5665 15.7523 33.2778 15.2725C32.9884 14.7932 32.7024 14.3265 32.4196 13.8726C32.1368 13.4187 31.8938 13.0211 31.6905 12.6798C31.4863 12.3383 31.3449 12.1082 31.2663 11.9897C31.0713 11.6956 30.9559 11.3559 30.9315 11.0039C30.951 10.666 31.0597 10.3394 31.2466 10.0572C31.3254 9.92577 31.47 9.69242 31.6803 9.35724C31.8906 9.02206 32.137 8.62448 32.4196 8.16443C32.7021 7.70438 32.9882 7.23446 33.2778 6.75469C33.5674 6.27492 33.8398 5.8247 34.0952 5.40408C34.3519 4.9839 34.6379 4.51727 34.9531 4.00421H40L36.0962 10.3727C35.9754 10.5617 35.9073 10.7797 35.8991 11.0039C35.9121 11.2393 35.9942 11.4656 36.1353 11.6545H36.136Z" fill="white"/>
<circle cx="52.3333" cy="11.0034" r="10" fill="white"/>
<path d="M56.5721 8.83898H55.1124C54.8938 8.8419 54.6849 8.93005 54.5304 9.08467C54.3758 9.23929 54.2877 9.44817 54.2849 9.66678V11.7833C54.547 11.6673 54.8267 11.5962 55.1124 11.573H56.7218C56.9144 11.5824 57.107 11.553 57.288 11.4865C57.469 11.42 57.6348 11.3178 57.7754 11.1859C57.9072 11.0451 58.0093 10.8793 58.0758 10.6983C58.1423 10.5174 58.1718 10.3249 58.1626 10.1323C58.1717 9.95691 58.1398 9.78179 58.0694 9.6209C57.999 9.46001 57.8921 9.31775 57.757 9.20544C57.416 8.95069 56.9975 8.82127 56.5721 8.83898Z" fill="#00B8F1"/>
<path d="M52.3332 0.669922C49.5926 0.669922 46.9644 1.75861 45.0265 3.69645C43.0887 5.6343 42 8.26257 42 11.0031C42 13.7437 43.0887 16.372 45.0265 18.3099C46.9643 20.2478 49.5926 21.3365 52.3332 21.3366C55.0738 21.3366 57.7021 20.2479 59.6401 18.31C61.578 16.3721 62.6667 13.7437 62.6667 11.0031C62.6666 8.26254 61.5778 5.63425 59.6399 3.69642C57.702 1.75858 55.0737 0.669922 52.3332 0.669922ZM51.5551 12.8754C51.5476 15.083 49.965 15.785 49.3614 16.136L48.3213 14.8778L48.3455 14.8659L48.3213 14.8372C48.6559 14.6698 49.8982 14.0323 49.8982 13.0558V12.3187C49.7272 12.6658 48.842 13.0587 48.24 13.0687H48.1736C47.317 13.0699 46.491 12.7506 45.858 12.1735C45.5247 11.8506 45.2627 11.4616 45.0886 11.0315C44.9145 10.6014 44.8322 10.1397 44.8469 9.67592V7.44998H46.4615V9.67592C46.4615 10.9708 47.3571 11.4425 48.2071 11.4544C48.9514 11.4441 49.8846 11.1215 49.9169 10.124V7.44872H51.5534L51.5551 12.8754ZM58.5671 14.2459C58.6562 14.3391 58.7681 14.4075 58.8917 14.4443C59.0153 14.4812 59.1463 14.4852 59.272 14.4559L59.2697 15.7944H58.2903C58.279 15.7944 58.268 15.7963 58.258 15.7963C58.248 15.7963 58.2351 15.7963 58.2235 15.7944H58.1874V15.7924C57.9965 15.7765 57.817 15.6952 57.6793 15.5621L55.7737 13.2277H55.114C54.8953 13.2307 54.6864 13.3189 54.5319 13.4735C54.3773 13.6282 54.2893 13.8372 54.2865 14.0559V15.7944H52.6316V9.66659C52.6324 9.00833 52.8942 8.37724 53.3595 7.91163C53.8248 7.44602 54.4557 7.18383 55.114 7.18255H56.5737C57.385 7.16285 58.1778 7.42673 58.8155 7.92872C59.1369 8.19709 59.394 8.53416 59.5679 8.9151C59.7418 9.29604 59.8279 9.71114 59.82 10.1298C59.8294 10.5402 59.757 10.9483 59.6072 11.3304C59.4574 11.7125 59.2331 12.0611 58.9474 12.3558C58.5879 12.7121 58.1424 12.9696 57.6541 13.1032C57.6541 13.1032 58.2129 13.8665 58.5671 14.2446V14.2459Z" fill="#00B8F1"/>
</svg>

<svg xmlns="http://www.w3.org/2000/svg" viewBox="0 0 63 22"><path fill="#fff" d="M0 18.003V4.005h4.593v13.998H0Zm10.843-11.77 2.641 11.77H8.457L5.303 4.005h2.82a2.655 2.655 0 0 1 1.764.64c.491.404.829.964.956 1.588Zm3.331 11.77V4.005h4.594v13.998h-4.594Zm8.063-8.675a2.737 2.737 0 0 1-1.409-.375 2.778 2.778 0 0 1-1.015-1.015 2.735 2.735 0 0 1-.375-1.41 2.685 2.685 0 0 1 .375-1.4 2.812 2.812 0 0 1 3.824-1.005c.415.244.761.59 1.005 1.005.251.424.38.908.375 1.4.005.495-.125.983-.375 1.41a2.8 2.8 0 0 1-1.005 1.015c-.424.251-.908.38-1.4.375Zm3.49 8.675V4.005h4.594v13.998h-4.594Zm10.409-6.348c.013.013.111.174.296.483.184.308.424.702.72 1.183a384.573 384.573 0 0 1 1.862 3.056c.289.48.617 1.022.986 1.626h-5.047l-.858-1.39c-.256-.414-.529-.86-.817-1.34-.29-.48-.576-.947-.858-1.4a71.148 71.148 0 0 1-.73-1.193 21.119 21.119 0 0 0-.424-.69 2.04 2.04 0 0 1-.334-.986c.019-.338.128-.665.315-.947.078-.131.223-.365.433-.7a216.7 216.7 0 0 0 1.598-2.603l.817-1.35.858-1.4H40l-3.904 6.369c-.12.189-.189.407-.197.63.013.236.095.463.236.652h.001Z"/><circle cx="52.333" cy="11.003" r="10" fill="#fff"/><path fill="#00B8F1" d="M56.572 8.839h-1.46a.839.839 0 0 0-.827.828v2.116c.262-.116.542-.187.827-.21h1.61a1.439 1.439 0 0 0 1.053-.387 1.44 1.44 0 0 0 .388-1.054 1.13 1.13 0 0 0-.406-.927 1.851 1.851 0 0 0-1.185-.366Z"/><path fill="#00B8F1" d="M52.333.67a10.333 10.333 0 1 0 0 20.666 10.333 10.333 0 0 0 0-20.666Zm-.778 12.205c-.007 2.208-1.59 2.91-2.194 3.261l-1.04-1.258.025-.012-.025-.029c.335-.167 1.577-.805 1.577-1.781v-.737c-.17.347-1.056.74-1.658.75h-.066a3.43 3.43 0 0 1-2.316-.896 3.33 3.33 0 0 1-1.011-2.497V7.45h1.614v2.226c0 1.295.896 1.767 1.746 1.778.744-.01 1.678-.333 1.71-1.33V7.449h1.636l.002 5.426Zm7.012 1.37a.742.742 0 0 0 .705.21l-.002 1.34h-.98l-.032.001c-.01 0-.023 0-.035-.002h-.036v-.002a.83.83 0 0 1-.508-.23l-1.905-2.334h-.66a.84.84 0 0 0-.828.828v1.738h-1.654V9.667a2.487 2.487 0 0 1 2.482-2.484h1.46a3.488 3.488 0 0 1 2.242.746 2.8 2.8 0 0 1 1.004 2.2 3.095 3.095 0 0 1-.873 2.227 2.94 2.94 0 0 1-1.293.747s.559.764.913 1.142Z"/></svg>
